Papirus/22x22/panel/indicator-trashindicator-attention.svg

<?xml version="1.0" encoding="UTF-8" standalone="no"?>
<svg xmlns:dc="http://purl.org/dc/elements/1.1/" xmlns:cc="http://creativecommons.org/ns#" xmlns:rdf="http://www.w3.org/1999/02/22-rdf-syntax-ns#" xmlns:svg="http://www.w3.org/2000/svg" xmlns="http://www.w3.org/2000/svg" version="1.1" width="22" height="22" style="enable-background:new" id="svg7384">
    <metadata id="metadata90">
        <rdf:RDF>
            <cc:Work rdf:about="">
                <dc:format>
                    image/svg+xml
                </dc:format>
                <dc:type rdf:resource="http://purl.org/dc/dcmitype/StillImage"/>
                <dc:title>
                    Paper Symbolic Icon Theme
                </dc:title>
            </cc:Work>
        </rdf:RDF>
    </metadata>
    <title id="title8473">
        Paper Symbolic Icon Theme
    </title>
    <path id="path8476" d="M 9.0019531 3.9902344 C 8.0019531 3.9902344 8.0019531 4.9902344 8.0019531 4.9902344 L 5.0019531 4.9902344 C 5.0019531 4.9902344 4 4.9937406 4 5.9941406 L 4 5.9960938 L 4 6.9960938 L 17 6.9941406 L 17 5.9941406 C 17 4.9941406 16.001953 4.9902344 16.001953 4.9902344 L 13.001953 4.9902344 C 13.001953 4.9902344 13.001953 3.9902344 12.001953 3.9902344 L 9.0019531 3.9902344 z M 5 7.9960938 C 5 7.9960938 3.9612231 11.2997 4.0019531 13 C 4.0319531 14.38 5.0019531 17 5.0019531 17 C 5.0020031 17.52358 5.4783731 17.99995 6.0019531 18 L 14.001953 18 L 15.001953 18 C 15.525533 17.99995 16.001903 17.52358 16.001953 17 C 16.001953 17 16.969063 14.376806 17.001953 13.003906 C 17.041953 11.303906 16.001953 8.0039062 16.001953 8.0039062 L 5 7.9960938 z " style="color:#ffffff;text-indent:0;text-decoration:none;text-decoration-line:none;text-transform:none;block-progression:tb;opacity:1000002;fill:#ffffff;enable-background:accumulate"/>
</svg>

<?xml version="1.0" encoding="UTF-8" standalone="no"?>
<svg id="svg7384" xmlns:rdf="http://www.w3.org/1999/02/22-rdf-syntax-ns#" style="enable-background:new" xmlns="http://www.w3.org/2000/svg" height="22" width="22" version="1.1" xmlns:cc="http://creativecommons.org/ns#" xmlns:dc="http://purl.org/dc/elements/1.1/">
 <metadata id="metadata90">
  <rdf:RDF>
   <cc:Work rdf:about="">
    <dc:format>image/svg+xml</dc:format>
    <dc:type rdf:resource="http://purl.org/dc/dcmitype/StillImage"/>
   </cc:Work>
  </rdf:RDF>
 </metadata>
 <path id="path8476" opacity="1e6" style="color:#ffffff;text-indent:0;block-progression:tb;text-decoration-line:none;enable-background:accumulate;text-transform:none" fill="#fff" d="m9.002 3.9902c-1 0-1 1-1 1h-3s-1.002 0.0035-1.002 1.0039v0.002 1l13-0.002v-1c0-1-0.998-1.0039-0.998-1.0039h-3s0-1-1-1h-3zm-4.002 4.0059s-1.0388 3.3039-0.998 5.0039c0.03 1.38 1 4 1 4 0 0.524 0.4764 1 1 1h8 1c0.524 0 1-0.476 1-1 0 0 0.967-2.623 1-3.996 0.04-1.7-1-5.0001-1-5.0001l-11.002-0.0078z"/>
</svg>
